X:1
T:What Means This Glory Round Our Feet?
T:Gaetano Donizetti (1797-1848) 
T:What Means This Glory Round Our Feet?
T:Public Domain
T:Public Domain
C:Gaetano Donizetti (1797-1848)
Z:Public Domain
%%score ( 1 2 ) 3
L:1/8
M:6/8
K:E
V:1 treble 
V:2 treble 
V:3 bass 
V:1
 ([EG]/"^Moderato"[FA]/) | [GB]2 [^^F^A] [GB]2 [^F=A] | [EG]2 [D^^F] [EG]2 [D^F] | %3
w: 1.~“What *|means this glo- ry|round our feet,” The|
w: 2.~’Tis *|eight- een hund- red|years, and more, Since|
w: 3.~All *|round a- bout our|feet shall shine A|
 E2 [DF] ([EG][FA])[GB] | [Dc]2 [DB] [DF]2 [FB] | [GB]2 [^^F^A] [GB]2 [^F=A] | %6
w: Ma- gi mused, * “more|than morn!” And voic-|es chant- ed clear|
w: those sweet or- * a-|were dumb; We wait|for Him, like them|
w: light like that * the|men saw, If we|our lov- ing wills|
 [EG]2 [D^^F] [EG]2 E | [DG]2 [DF] [CA]2 [B,D] | [B,E]2 [B,F] [B,E]2 ([DF]/[EG]/) | %9
w: and sweet, “To- day|Prince of Peace is|born!” “What means this *|
w: of yore; A- las!|seems so slow to|come! But it was *|
w: in- cline To that|Life which is the|Law. So shall we *|
 [FA]2 [FA] [FA]2 [FA] | ([FA][EG])[D^^F] [EG]2 [EG] | [EG]2 [EG] ([EG][FA])[EG] | %12
w: star,” the shep- herds|said, * “That bright- ens|through the rock- * y|
w: said, in words of|gold, * No time nor|sor- row e’er * shall|
w: learn to un- der-|stand * The sim- ple|faith of shep- * herds|
 [DF]2 [EG] [DF]2 ([EG]/[FA]/) | [GB]2 [^^F^A] [GB]2 [^F=A] | [EG]2 [D^^F] [EG]2 E | %15
w: glen?” And an- gels *|an- swering o- ver-|head, Sang “Peace on|
w: dim, That lit- tle *|child- ren might be|bold, In per- fect|
w: then, And kind- ly *|clasp- ing hand in|hand, Sing “Peace on|
 [EG]2 [DF] [CA]2 [B,D] | [B,E]2 [B,F] [B,E]2 |] %17
w: good will to men!”||
w: to come to Him.||
w: good will to men!”||
V:2
 x | x6 | x6 | E2 x4 | x6 | x6 | x5 E | x6 | x6 | x6 | x6 | x6 | x6 | x6 | x5 E | x6 | x5 |] %17
w: |||bright|||the||||||||earth,|||
w: |||cles|||He||||||||trust|||
w: |||wise|||sweet||||||||earth,|||
V:3
 ([E,B,]/[E,B,]/) | [E,B,]2 [E,B,] [E,B,]2 [E,B,] | [E,B,]2 [E,B,] [E,B,]2 [E,A,] | %3
 [E,G,]2 [E,A,] [E,B,]2 [E,B,] | [B,,B,]2 [B,,B,] [B,,B,]2 [D,B,] | [E,B,]2 [E,B,] [E,B,]2 [E,B,] | %6
 [E,B,]2 [E,B,] [E,B,]2 [G,B,] | [B,,B,]2 [B,,A,] [B,,F,]2 [B,,A,] | %8
 [E,G,]2 [E,A,] [E,G,]2 [B,,B,] | [B,,B,]2 [B,,B,] [B,,B,]2 [B,,B,] | %10
 [B,,B,]2 [B,,B,] [E,B,]2 [E,B,] | [E,B,]2 [E,B,] [E,B,]2 [E,B,] | %12
 [B,,B,]2 [B,,B,] [B,,B,]2 [E,B,] | [E,B,]2 [E,B,] [E,B,]2 [E,B,] | [E,B,]2 [E,B,] [E,B,]2 [E,G,] | %15
 [B,,B,]2 [B,,A,] [B,,F,]2 [B,,A,] | [E,G,]2 [E,A,] [E,G,]2 |] %17

